X:57
T: O'Donnel's Sligo Maid
S: Tap Room Trio
M:4/4
L:1/8
K:AMix
gf|| efed cdef | gedB AGEF | G2 AG BGAG | DEGA BA Af|
| efed cdef | gedB AGEF | G2 AG BGAG | DEGA BA A2 :|
|eaag a2 ga | gbbg agef | gage ~d2 ef | gdcd cdeg |
eaag a2 ga | gbbg agef  | gage ~d2 ef | gfgB BA A2 :||
